X:1
T:Jesus Is Passing This Way (Hoffman)
T:Jesus Is Passing This Way (Hoffman)
T:John Harrison Tenney
T:Elisha Albright Hoffman, 1878
T:Public Domain Courtesy of the Cyber Hymnal™
T:Public Domain Courtesy of the Cyber Hymnal™
C:John Harrison Tenney
Z:Public Domain
Z:Courtesy of the Cyber Hymnal™
%%score ( 1 2 ) 3
L:1/8
Q:1/4=96
M:6/8
K:F
V:1 treble 
V:2 treble 
V:3 bass 
V:1
 [FA][FA][FA] [FA][FA][FA] | [Fc]3 [FA]3 | [EG][EG][EG] [EG][FA][GB] | [FA]3- [FA]2 z | %4
w: 1.~Is there a sin- ner a-|wait- ing|Mer- cy and par- don to-|day? *|
w: 2.~Bro- ther, the Mas- ter is|wait- ing,|Wait- ing to free- ly for-|give; *|
w: 3.~Yes, He is com- ing to|bless you|While in con- tri- tion you|bow; *|
 [FA][FA][FA] [FA][FA][FA] | [Fc]3 [FA]3 | [EG][EG][Fc] ([Fd][Fd])[Ge] | [Ec]3- [Ec]2 z | %8
w: Wel- come the news that we|bring him:|“Je- sus is passing * this|way!” *|
w: Why not this mo- ment ac-|cept Him,|Trust in His grace * and|live? *|
w: Com- ing from sin to re-|deem you,|Rea- dy to save * you|now; *|
 [Fc][Fd][Fc] [Fc][FA]F | [FA]3 [EG]3 | [DF][DF][DF] [FA][EG][DF] | [EG]3- [EG]2 z | %12
w: Com- ing in love and in|mer- cy,|Par- don and peace to bes-|tow, *|
w: He is so ten- der and|pre- cious,|He is so near you to-|day; *|
w: Can you re- fuse the sal-|va- tion|Je- sus is of- fer- ing|here? *|
 [FA][FA][FA] [FA][FB][Fc] | [FB]3 [Fd]3 | [Fc][CA][CF] C!fermata![FA][EG] | F3- F2 z || %16
w: Com- ing to save the poor|sin- ner|From his heart an- guish and|woe. *|
w: O- pen your heart to re-|ceive Him,|While He is pass- ing this|way. *|
w: O- pen your heart to ad-|mit Him,|While He is com- ing so|near. *|
"^Refrain" [Ac][^G=B][Ac] [_Bd][Ac][FA] | [EG]3- [EG]2 [EG] | ([Ec]3- cB)[EG] | [FA]3- [FA]2 z | %20
w: Je- sus is pass- ing this|way, * To-|day, * * *|to- *|
w: ||||
w: ||||
 [Fc][Fc][Fc] [Fc][Fd][Fc] | [Ac]3 [GB]3 | [GB][GB][GB] [GB][Ac][GB] | [GB]3 [FA]2 [Fc] | %24
w: day; While He is near, O|be- lieve|Him, O- pen your heart to|re- ceive Him,|
w: ||||
w: ||||
 [Fd][Fd][Fd] [Fd][Fe][Ff] | [Fc]3- [Fc]2 [FA] | [EG][EG][EG] !fermata![FA]2 [EG] | F6 |] %28
w: For Je- sus is pass- ing|this * way,|Is pass- ing this way|to-|
w: ||||
w: ||||
V:2
 x6 | x6 | x6 | x6 | x6 | x6 | x6 | x6 | x5 F | x6 | x6 | x6 | x6 | x6 | x3 C x2 | F3- F2 x || x6 | %17
 x6 | x3 E2 x | x6 | x6 | x6 | x6 | x6 | x6 | x6 | x6 | F6 |] %28
V:3
 [F,C][F,C][F,C] [F,C][F,C][F,C] | [F,A,]3 [F,C]3 | [C,C][C,C][C,C] [C,C][C,C][C,C] | %3
w: |||
 [F,C]3- [F,C]2 z | [F,C][F,C][F,C] [F,C][F,C][F,C] | [F,A,]3 [F,C]3 | %6
w: |||
 [G,C][G,C][G,C] ([G,=B,][G,B,])[G,B,] | [C,C]3- [C,C]2 z | [F,A,][F,B,][F,A,] [F,A,][F,C][F,A,] | %9
w: |||
 [C,C]3 [C,B,]3 | [D,A,][D,A,][D,A,] [D,A,][D,A,][D,A,] | [C,C]3- [C,C]2 z | %12
w: |||
 [F,C][F,C][F,C] [F,C][F,D][F,_E] | [B,,D]3 [B,,B,]3 | %14
w: ||
 [C,A,][C,A,][C,A,] [C,A,]!fermata![C,C][C,B,] | [F,A,]3- [F,A,]2 z || z6 | %17
w: |||
 [C,C][C,C][C,C] [C,C][C,C][C,C] | [C,G,]2 [C,G,] [C,G,]2 [C,C] | [F,C][F,C][F,C] [F,C]2 z | %20
w: Je- sus is pass- ing this|way, To- day, is|pass- ing to- day!|
 [F,A,][F,A,][F,A,] [F,A,][F,B,][F,A,] | [C,C]3 [C,C]3 | [C,C][C,C][C,C] [C,C][C,C][C,C] | %23
w: |||
 [F,C]3 [F,C]2 [F,A,] | [B,,B,][B,,B,][B,,B,] [B,,B,][B,,C][B,,D] | [F,A,]2 [F,A,] [F,A,]2 [F,C] | %26
w: ||* this way, *|
 [C,C][C,C][C,C] !fermata![C,C]2 [C,C] | [F,A,]6 |] %28
w: ||

